static/img/kroki/0bdc440e242a6949bc03cef8020c0fb4.svg

<?xml version="1.0" encoding="us-ascii" standalone="no"?><svg xmlns="http://www.w3.org/2000/svg" xmlns:xlink="http://www.w3.org/1999/xlink" contentStyleType="text/css" height="152px" preserveAspectRatio="none" style="width:513px;height:152px;" version="1.1" viewBox="0 0 513 152" width="513px" zoomAndPan="magnify"><defs/><g><!--class aws_sagemaker_artifact--><g id="elem_aws_sagemaker_artifact"><rect codeLine="22" fill="#3D176E" height="39.7891" id="aws_sagemaker_artifact" rx="2.5" ry="2.5" style="stroke:#000D19;stroke-width:0.5;" width="245" x="7" y="106.79"/><ellipse cx="22" cy="126.6845" fill="#ADD1B2" rx="11" ry="11" style="stroke:#181818;stroke-width:1.0;"/><path d="M24.9688,132.3252 Q24.3906,132.622 23.75,132.7627 Q23.1094,132.9189 22.4063,132.9189 Q19.9063,132.9189 18.5781,131.2783 Q17.2656,129.622 17.2656,126.497 Q17.2656,123.372 18.5781,121.7158 Q19.9063,120.0595 22.4063,120.0595 Q23.1094,120.0595 23.75,120.2158 Q24.4063,120.372 24.9688,120.6689 L24.9688,123.3877 Q24.3438,122.8095 23.75,122.5439 Q23.1563,122.2627 22.5313,122.2627 Q21.1875,122.2627 20.5,123.3408 Q19.8125,124.4033 19.8125,126.497 Q19.8125,128.5908 20.5,129.6689 Q21.1875,130.7314 22.5313,130.7314 Q23.1563,130.7314 23.75,130.4658 Q24.3438,130.1845 24.9688,129.6064 L24.9688,132.3252 Z " fill="#000000"/><text fill="#D9B8FF" font-family="Helvetica" font-size="17" lengthAdjust="spacing" textLength="203" x="41" y="132.5698">aws_sagemaker_artifact</text></g><!--class aws_sagemaker_project--><g id="elem_aws_sagemaker_project"><rect codeLine="24" fill="#3D176E" height="39.7891" id="aws_sagemaker_project" rx="2.5" ry="2.5" style="stroke:#000D19;stroke-width:0.5;" width="242" x="141.5" y="7"/><ellipse cx="156.5" cy="26.8945" fill="#ADD1B2" rx="11" ry="11" style="stroke:#181818;stroke-width:1.0;"/><path d="M159.4688,32.5352 Q158.8906,32.832 158.25,32.9727 Q157.6094,33.1289 156.9063,33.1289 Q154.4063,33.1289 153.0781,31.4883 Q151.7656,29.832 151.7656,26.707 Q151.7656,23.582 153.0781,21.9258 Q154.4063,20.2695 156.9063,20.2695 Q157.6094,20.2695 158.25,20.4258 Q158.9063,20.582 159.4688,20.8789 L159.4688,23.5977 Q158.8438,23.0195 158.25,22.7539 Q157.6563,22.4727 157.0313,22.4727 Q155.6875,22.4727 155,23.5508 Q154.3125,24.6133 154.3125,26.707 Q154.3125,28.8008 155,29.8789 Q155.6875,30.9414 157.0313,30.9414 Q157.6563,30.9414 158.25,30.6758 Q158.8438,30.3945 159.4688,29.8164 L159.4688,32.5352 Z " fill="#000000"/><text fill="#D9B8FF" font-family="Helvetica" font-size="17" lengthAdjust="spacing" textLength="200" x="175.5" y="32.7798">aws_sagemaker_project</text></g><!--class aws_sagemaker_trial--><g id="elem_aws_sagemaker_trial"><rect codeLine="26" fill="#3D176E" height="39.7891" id="aws_sagemaker_trial" rx="2.5" ry="2.5" style="stroke:#000D19;stroke-width:0.5;" width="219" x="287" y="106.79"/><ellipse cx="302" cy="126.6845" fill="#ADD1B2" rx="11" ry="11" style="stroke:#181818;stroke-width:1.0;"/><path d="M304.9688,132.3252 Q304.3906,132.622 303.75,132.7627 Q303.1094,132.9189 302.4063,132.9189 Q299.9063,132.9189 298.5781,131.2783 Q297.2656,129.622 297.2656,126.497 Q297.2656,123.372 298.5781,121.7158 Q299.9063,120.0595 302.4063,120.0595 Q303.1094,120.0595 303.75,120.2158 Q304.4063,120.372 304.9688,120.6689 L304.9688,123.3877 Q304.3438,122.8095 303.75,122.5439 Q303.1563,122.2627 302.5313,122.2627 Q301.1875,122.2627 300.5,123.3408 Q299.8125,124.4033 299.8125,126.497 Q299.8125,128.5908 300.5,129.6689 Q301.1875,130.7314 302.5313,130.7314 Q303.1563,130.7314 303.75,130.4658 Q304.3438,130.1845 304.9688,129.6064 L304.9688,132.3252 Z " fill="#000000"/><text fill="#D9B8FF" font-family="Helvetica" font-size="17" lengthAdjust="spacing" textLength="177" x="321" y="132.5698">aws_sagemaker_trial</text></g><!--link aws_sagemaker_project to aws_sagemaker_artifact--><g id="link_aws_sagemaker_project_aws_sagemaker_artifact"><path codeLine="28" d="M236.22,47.22 C214.46,63.22 183.48,86 160.5,102.89 " fill="none" id="aws_sagemaker_project-to-aws_sagemaker_artifact" style="stroke:#1A83AF;stroke-width:2.0;"/><polygon fill="#1A83AF" points="156.72,106.41,166.3373,104.2868,160.7438,103.4421,161.5886,97.8486,156.72,106.41" style="stroke:#1A83AF;stroke-width:2.0;"/></g><!--link aws_sagemaker_project to aws_sagemaker_trial--><g id="link_aws_sagemaker_project_aws_sagemaker_trial"><path codeLine="29" d="M288.97,47.22 C310.91,63.22 342.12,86 365.27,102.89 " fill="none" id="aws_sagemaker_project-to-aws_sagemaker_trial" style="stroke:#1A83AF;stroke-width:2.0;"/><polygon fill="#1A83AF" points="369.08,106.41,364.1576,97.8794,365.0376,103.4674,359.4496,104.3474,369.08,106.41" style="stroke:#1A83AF;stroke-width:2.0;"/></g><!--SRC=[bP91Jy9048Nl_8fDUYQX4Yszc5GIeXTYn9inPEZEqhNjRZCxsA3nlqj1pT8MYDTvtynxCvbCInHOLhmL9POh93TmkJOL49GY8RBrr1QMHA0Kg77K5cVMy4LW3YMAUopUaNKARU8vqsbkq3bnvKbtaEPhiXiZ3-EPmBYTX8OzQbg0SmapwTM6qGiZuzL4gJRP7XgCPHZTO0Up995-aD5e9CEuZLoqEhlt7x7G7oX2_sXpozY9sR7OKsTJDeGNihFehtuouoD8gSrQN7krfqCcCaX7zKK6qjODhQ1mlerZ9BIyhN3QsGhZYLHHB_nm2awRomcetTB16al8aPP0h1MaB3u7Nxr0HVODp-Yxzu5Yh_Rt3L-2C9cCazdhyFQ4z_yxzwRV]--></g></svg>

<svg xmlns="http://www.w3.org/2000/svg" width="513" height="152" preserveAspectRatio="none" style="width:513px;height:152px"><rect width="245" height="39.789" x="7" y="106.79" fill="#3D176E" rx="2.5" ry="2.5" style="stroke:#000d19;stroke-width:.5"/><circle cx="22" cy="126.684" r="11" fill="#ADD1B2" style="stroke:#181818;stroke-width:1"/><path d="M24.969 132.325q-.578.297-1.219.438-.64.156-1.344.156-2.5 0-3.828-1.64-1.312-1.657-1.312-4.782t1.312-4.781q1.328-1.656 3.828-1.656.703 0 1.344.156.656.156 1.219.453v2.719q-.625-.579-1.219-.844-.594-.281-1.219-.281-1.343 0-2.031 1.078-.688 1.062-.688 3.156 0 2.094.688 3.172.688 1.062 2.031 1.062.625 0 1.219-.265.594-.281 1.219-.86v2.72Z"/><text x="41" y="132.57" fill="#D9B8FF" font-family="Helvetica" font-size="17" textLength="203">aws_sagemaker_artifact</text><rect width="242" height="39.789" x="141.5" y="7" fill="#3D176E" rx="2.5" ry="2.5" style="stroke:#000d19;stroke-width:.5"/><circle cx="156.5" cy="26.895" r="11" fill="#ADD1B2" style="stroke:#181818;stroke-width:1"/><path d="M159.469 32.535q-.578.297-1.219.438-.64.156-1.344.156-2.5 0-3.828-1.64-1.312-1.657-1.312-4.782t1.312-4.781q1.328-1.656 3.828-1.656.703 0 1.344.156.656.156 1.219.453v2.719q-.625-.578-1.219-.844-.594-.281-1.219-.281-1.344 0-2.031 1.078-.688 1.062-.688 3.156 0 2.094.688 3.172.688 1.062 2.031 1.062.625 0 1.219-.265.594-.281 1.219-.86v2.72Z"/><text x="175.5" y="32.78" fill="#D9B8FF" font-family="Helvetica" font-size="17" textLength="200">aws_sagemaker_project</text><rect width="219" height="39.789" x="287" y="106.79" fill="#3D176E" rx="2.5" ry="2.5" style="stroke:#000d19;stroke-width:.5"/><circle cx="302" cy="126.684" r="11" fill="#ADD1B2" style="stroke:#181818;stroke-width:1"/><path d="M304.969 132.325q-.578.297-1.219.438-.64.156-1.344.156-2.5 0-3.828-1.64-1.312-1.657-1.312-4.782t1.312-4.781q1.328-1.656 3.828-1.656.703 0 1.344.156.656.156 1.219.453v2.719q-.625-.579-1.219-.844-.594-.281-1.219-.281-1.344 0-2.031 1.078-.688 1.062-.688 3.156 0 2.094.688 3.172.688 1.062 2.031 1.062.625 0 1.219-.265.594-.281 1.219-.86v2.72Z"/><text x="321" y="132.57" fill="#D9B8FF" font-family="Helvetica" font-size="17" textLength="177">aws_sagemaker_trial</text><path fill="none" d="M236.22 47.22c-21.76 16-52.74 38.78-75.72 55.67" style="stroke:#1a83af;stroke-width:2"/><path fill="#1A83AF" d="m156.72 106.41 9.617-2.123-5.593-.845.845-5.593-4.869 8.561z" style="stroke:#1a83af;stroke-width:2"/><path fill="none" d="M288.97 47.22c21.94 16 53.15 38.78 76.3 55.67" style="stroke:#1a83af;stroke-width:2"/><path fill="#1A83AF" d="m369.08 106.41-4.922-8.53.88 5.587-5.588.88 9.63 2.063z" style="stroke:#1a83af;stroke-width:2"/></svg>
